svg/600/sharp/e911_emergency.svg

<svg xmlns="http://www.w3.org/2000/svg" width="48" height="48" viewBox="0 -960 960 960"><path d="M200.391-137.39v-79.219h63.261l97-320h238.696l97 320h63.261v79.219H200.391Zm147.61-79.219h263.998L539.652-457.39H420.348l-72.347 240.781Zm92.39-446.782v-199.784h79.218v199.784h-79.218Zm257.61 108.739-56.566-56.566 141.566-141.131 55.566 56.131-140.566 141.566Zm58.391 194.261v-79.218h199.219v79.218H756.392ZM261.999-554.652 121.433-696.218l55.566-56.131L319.13-611.218l-57.131 56.566ZM4.389-360.391v-79.218h199.784v79.218H4.389ZM480-216.609Z"/></svg>

<svg xmlns="http://www.w3.org/2000/svg" width="48" height="48" viewBox="0 -960 960 960"><path d="M200.39-137.39v-79.22h63.26l97-320h238.7l97 320h63.26v79.22H200.39ZM348-216.61h264l-72.35-240.78h-119.3L348-216.61Zm92.39-446.78v-199.79h79.22v199.79h-79.22ZM698-554.65l-56.57-56.57L783-752.35l55.57 56.13L698-554.65Zm58.39 194.26v-79.22h199.22v79.22H756.39ZM262-554.65 121.43-696.22 177-752.35l142.13 141.13L262-554.65ZM4.39-360.39v-79.22h199.78v79.22H4.39ZM480-216.61Z"/></svg>
